public/images/svg/profile-icon.svg

<svg width="20" height="19" viewBox="0 0 20 19" fill="none" xmlns="http://www.w3.org/2000/svg">
<path fill-rule="evenodd" clip-rule="evenodd" d="M10 10C12.7625 10 15 7.7625 15 5C15 2.2375 12.7625 0 10 0C7.2375 0 5 2.2375 5 5C5 7.7625 7.2375 10 10 10ZM10 11.5C6.6625 11.5 0 13.175 0 16.5V17.75C0 18.4375 0.5625 19 1.25 19H18.75C19.4375 19 20 18.4375 20 17.75V16.5C20 13.175 13.3375 11.5 10 11.5Z" fill="#8B96A5"/>
</svg>

<svg width="20" height="19" fill="none" xmlns="http://www.w3.org/2000/svg"><path fill-rule="evenodd" clip-rule="evenodd" d="M10 10c2.762 0 5-2.237 5-5s-2.238-5-5-5C7.237 0 5 2.237 5 5s2.237 5 5 5Zm0 1.5c-3.338 0-10 1.675-10 5v1.25C0 18.438.563 19 1.25 19h17.5c.688 0 1.25-.563 1.25-1.25V16.5c0-3.325-6.662-5-10-5Z" fill="#8B96A5"/></svg>
